X: 1
T: Harbor, The
M: 6/8
L: 1/8
R: jig
K: Gmaj
B3 GDB, | G,B,D GBd | c3 cBA | cBA Bcd |
B3 GDB, | G,B,D GBd | c3 gce |1 cAF G2 A :|2 cAF G3 ||
Bdg gfe | fag fed | B3 AGA | cAG FGA | 
Bdg gfe | faf g2 a | bge dcB | cAB cBA :|
